X:118
M:6/8
L:1/8
Q:3/8=110
K:G
|:d|d2 D-D2 c| c2 C-C2 c|B2 A GFG| ADD D2 d|\
d2 D-D2 c| c2 C-C2 c|BAG AGF| G2 G G2:|

